X:1
T:Purdue, 76.76 D
T:Purdue, 76.76 D
T:Thomas Miles Bowdish, 1889
T:Public Domain Courtesy of the Cyber Hymnal™
C:Thomas Miles Bowdish, 1889
Z:Public Domain
Z:Courtesy of the Cyber Hymnal™
%%score ( 1 2 ) ( 3 4 )
L:1/8
Q:1/4=100
M:6/8
K:C
V:1 treble 
V:2 treble 
V:3 bass 
V:4 bass 
V:1
 [EG] | [EG]2 [CE] [CF]2 [FA] | [EG]3 [CE]2 [EG] | ([B,D][CE])[DF] [EG]2 [DF] | [CE]3- [CE]2 [EG] | %5
 [EG]2 [CE] [CF]2 [FA] | [EG]3 [CE]2 [Ec] | (AB)[Dc] [DB]2 [^FA] | G3- [FG]2 [EG] | %9
 [DF]2 [FB] [FA]2 [FB] | [Ec]3 [EG]2 [CG] | [CA]2 [CG] [DB]2 [Ec] | [Ec]3 [DB]2 [FA] | %13
 [EG]2 [Ec] [Ge]2 [Gc] | [Fc]3 [GB]2 [FA] | [EG]2 [Ec] ([DB][Ec])[Fd] | [Ec-]3 [Fc]2 |] %17
V:2
 x | x6 | x6 | x6 | x6 | x6 | x6 | D2 x4 | G3 x3 | x6 | x6 | x6 | x6 | x6 | x6 | x6 | x5 |] %17
V:3
 [C,C] | [C,C]2 [C,G,] [C,A,]2 [C,C] | [C,C]3 [C,G,]2 [C,G,] | G,2 G, [G,,G,]2 [G,,G,] | %4
 [C,G,]3- [C,G,]2 [C,C] | [C,C]2 [C,G,] [C,A,]2 [C,C] | [C,C]3 [C,G,]2 [C,G,] | %7
 (^F,G,)[D,A,] [D,G,]2 [D,C] | [G,B,]3- [G,B,]2 [G,C] | G,2 G, [G,,G,]2 [G,,G,] | %10
 [C,G,]3 [C,G,]2 [C,E,] | F,2 [E,G,] [D,G,]2 [C,G,] | [G,,G,]3- [G,,G,]2 [G,,G,B,] | %13
 [C,C]2 [C,G,] [C,G,]2 [E,G,] | [F,A,]3 [F,C]2 [F,C] | [G,C]2 G, [G,,G,]2 [G,,G,] | %16
 [C,G,]3- [C,G,]2 |] %17
V:4
 x | x6 | x6 | G,2 G, x3 | x6 | x6 | x6 | D,2 x4 | x6 | G,2 G, x3 | x6 | F,2 x4 | x6 | x6 | x6 | %15
 x2 G, x3 | x5 |] %17

